X:1
T:ABDUL ABULBUL AMEER
M:3/4
L:1/4
K:D
 z2 F| F E ^D| E F G| B A ^G| A2A/2-A/2| d c d| e d B| A3| z2 A/2A/2|\
 A E E| E F G| B A F| d2F/2-F/2| A A A| G F E| D3-| D z2|

